X: 10841
T: Beneath yon Mountains shaggy Cliff
C: Giordani
Q: "Andantino"
B: "Man of Feeling", Gaetano Brandi, ed. v.1 p.84-86
F: http://archive.org/details/manoffeelingorge00rugg
Z: 2012 John Chambers <jc:trillian.mit.edu>
M: 2/4
L: 1/16
K: F
%%continueall
c2 | (F3G) (A2F2) | (A3B) (c2A2) | (G2A2) (B2c2) |
w: Be-neath* yon* Moun-*tains* shag-*gy*
d6 d2 | (f2a2) (c2f2) | (d2f2) (G2B2) | (c2B2) (A2G2) |
w: Cliff, whence bub-*ling* wa-*ters* steal* their*
F6 c2 | (F3G) (A2F2) | (A3B) (c2A2) | (G2A2) (B2c2) |
w: way, Pa-le-*mon* with* his* flee-*cy*
d6 d2 | g6 ^g2 | (a3g/f/) (e3f/d/) | (g3a) (c2=B2) |
w: care were shel-ter'd from** the** sul-*try*
c6 c2 | {=B/c/d/}c4 (a2f2) | (f2e2) (d2c2) | {=B/c/d2}c4 (a2f2) |
w: ray re-clin'd up-*on* the* mos-sy*
(f2e2) z2e2 | (a2d2) d4 | b6 g2 | f4 e4 | Hd4 z2 c2 |
w: Turf* he sweet-*ly pip'd his wood-notes wild  In
(F3G) (A2F2) | (A3B) (c2A2) | (G2A2) (B2c2) | d6 d2 | (f2a2) (c2f2) |
w: praise* of* Phoe-*be* gen-*tle* Maid whose love-*ly*
(d2f2) (G2B2) | A4 TG4{FG} | G4 fgab | c'2af b2ge |
w: charms* his* hours be-guil'd.
f2F2 fgab | c'2af b2ge | f4 F4 | F6 |]
%
W: 2. Soft Eccho listen'd to the Tune,
W: And quick to Phoebe bore the sound;
W: Which soon as heard she instant knew,
W: And smiling sought the enchanting Ground.
W: No sooner did the Nymph appear.
W: Than rapture fill'd Palemon's breast;
W: He rose and on her modest Cheek,
W: The Kiss of rapture fondly prest.
W:
W: 3. The varying blush her Fate o'erspread,
W: As Lillies damask'd by the Rose;
W: While gentle tumults in each Breast,
W: Their mutual Love in sighs disclose.
W: When sudden open'd to their view,
W: Beneath the branches of an Oak;
W: A Village spire with Ivy drest,
W: And thus Palemon spoke.
W:
W: 4. Twelve moons my Love are gone and o'er,
W: Since first my youthfull heart you won;
W: Then haste my fair to yonder spire,
W: And there unite our vows in one.
W: Together hied the rustic Pair,
W: With constancy their only wealth;
W: Nor wish'd for more while thus possess'd,
W: Of Love, their Cot, and rosy health.
%
%%center -

% Continuation of previous page.

% Continuation of previous page.

%%sep 2 1 500
%%sep 1 1 500

